X:20
T:Morpeth Rant
M:4/4
L:1/8
Z:Steve Mansfield 13 November 2001
K:D
A2 | d2 AG FDFA | BGBd cAce | f2 fd gfed | c2 e2 e2 A2 | 
d2 AG FDFA | BGBd cAce | f2 fd gfed | A2 d2 d2 :: A2 | 
dfaf dfaf | gfef g2 ef | gfed cdeg | fefg f2 fd | 
dfaf dfaf | gfef g2 ef | gfed caag | f2 d2d2 :|

